X: 33
T: Warren's Trip to Stockholm
C: Mike Richardson
N: Seattle, Washington
B: "Gems - The Best of the Country Dance and Song Society", CDSS, 1993, p.83
Z: 2011 John Chambers <jc:trillian.mit.edu>
R: reel
M: C|
L: 1/8
K: A
|: "A"c2ec "D"d2fd | "A"c2ec "E"dBBd | "A"c2ec "D"defg | "E"afed "A"cAAB |
"A"c2ec "D"d2fd | "A"c2ec "E"dBBd | "A"cdef "D"geaf | "E7"edcB "A"cAAB :|
"A"cAeA ceAc | "E"BAGA BcdB | "A"cAeA ceAc | "E7"BAGB "A"(3AAA AB |
"A"cAeA ceAc | "E"BAGA BcdB | "A"ABcd efge | "D"afed "E7"cAAB ||
"A"(3cBA eA aAeA | "E"BAGA BcdB | "A"(3cBA eA aAeA | "E7"BAGB "A"(3AAA AB |
"A"(3cBA eA aAeA | "E"BAGA BcdB | "A"ABcd efga | "D"afed "E7"cAAB |]

%%sep 1 1 500
%%sep 1 1 500
